src/public/img/landing/new/dev-friendly/6.svg

<svg width="64" height="64" viewBox="0 0 64 64" fill="none" xmlns="http://www.w3.org/2000/svg">
<rect width="64" height="64" rx="16" fill="url(#paint0_linear_2628_7085)"/>
<rect x="26" y="20" width="4" height="6" rx="1" stroke="white" stroke-width="2"/>
<rect x="30" y="40" width="4" height="4" rx="1" stroke="white" stroke-width="2"/>
<rect x="34" y="20" width="4" height="6" rx="1" stroke="white" stroke-width="2"/>
<path d="M22 28C22 26.8954 22.8954 26 24 26H40C41.1046 26 42 26.8954 42 28V32C42 36.4183 38.4183 40 34 40H30C25.5817 40 22 36.4183 22 32V28Z" stroke="white" stroke-width="2"/>
<defs>
<linearGradient id="paint0_linear_2628_7085" x1="32" y1="0" x2="32" y2="64" gradientUnits="userSpaceOnUse">
<stop stop-color="white" stop-opacity="0.16"/>
<stop offset="1" stop-color="white" stop-opacity="0.08"/>
</linearGradient>
</defs>
</svg>

<svg xmlns="http://www.w3.org/2000/svg" width="64" height="64" fill="none">
  <rect width="64" height="64" fill="url(#a)" rx="16"/>
  <rect width="4" height="6" x="26" y="20" stroke="#fff" stroke-width="2" rx="1"/>
  <rect width="4" height="4" x="30" y="40" stroke="#fff" stroke-width="2" rx="1"/>
  <rect width="4" height="6" x="34" y="20" stroke="#fff" stroke-width="2" rx="1"/>
  <path stroke="#fff" stroke-width="2" d="M22 28a2 2 0 0 1 2-2h16a2 2 0 0 1 2 2v4a8 8 0 0 1-8 8h-4a8 8 0 0 1-8-8v-4Z"/>
  <defs>
    <linearGradient id="a" x1="32" x2="32" y1="0" y2="64" gradientUnits="userSpaceOnUse">
      <stop stop-color="#fff" stop-opacity=".16"/>
      <stop offset="1" stop-color="#fff" stop-opacity=".08"/>
    </linearGradient>
  </defs>
</svg>
